X:1
T:Ecce vidimus eum
T:Giovanni Pierluigi da Palestrina
T:Source : retrieved from a handwritten choir book in private collection, ca. 1930 Editor : André Vierendeels (18/05/17).
T:Notes : Original clefs : C1, C3, C4, F4 Responsory for Maundy Thursday
T:Ecce vidimus eum
T:©
T:©
T:©
T:©
T:©
C:Giovanni Pierluigi da Palestrina
Z:©
%%score [ 1 2 3 4 ]
L:1/8
Q:1/4=120
M:4/4
K:F
V:1 treble nm="Soprano" snm="S"
V:2 treble nm="Alto" snm="A"
V:3 treble-8 nm="Tenor" snm="T"
V:4 bass nm="Bass" snm="B"
V:1
 x8 | x8 | F8 | D4 z2 G2- | G2 F2 E4 | F4 E4 | z2 A4 G2 | F4 E4 | F4 G4 | A4 D4 | F4 E2 F2- | %11
w: ||Ec-|ce vi|_ di- mus|e- um|non ha-|ben- tem|spe- ci-|em ne-|que de- co-|
 F2 E2 F4 | z2 F2 F2 F2 | G4 F2 F2 | F4 E2 D2 | !fermata!^C4 D2 D2 | D2 D2 F4 | E2 ^F2 G4 | %18
w: * * rem|as- pec- tus|e- jus in|e- o non|est: Hic pec-|ca- ta no-|stra por- ta-|
 A4 z2 A2- | A2 G2 F2 E2 | F4 E4 | z2 F4 G2 | A4 B4 | G6 F2 | _E8 | D8 | D4 z2 B2- | BB B2 A2 F2 | %28
w: vit et|_ pro no- bis|do- let|i- pse|au- tem|vul- ne-|ra-|tus|est pro-|* pter in- i- qui-|
 A6 G2 | F8 | !fermata!E8 || z8 | z8 | C4 D2 E2 | F4 E4 | z4 C4 | D4 D2 F2- | FC F3 E/D/ E2 | %38
w: ta- tes|no-|stras.|||Cu- jus li-|vo- re|sa-|na- ti su-||
 !fermata!F8 || z8 | z8 | z8 | z8 | c6 A2- | A2 B4 G2- | G2 A4 F2 | G4 G2 A2 | B4 A4 | %48
w: mus.|||||Et do-|* lo- res|_ no- stros|i- pse por-|ta- *|
 !fermata!G8 |] %49
w: vit.|
V:2
 C8 | A,8 | C4 B,2 A,2 | B,4 C4 | z2 C3 C B,2 | A,3 B, C4 | F,4 z4 | A,2 =B,2 C4 | F,2 F4 E2 | %9
w: Ec-|ce|vi- di- mus|e- um|vi di mus|e _ _|um|non ha- ben-|tem spe- ci-|
 F2 A,4 D2- | D2 A,2 C4- | C4 C4 | z2 D2 D2 D2 | _E4 D2 D2 | C4 C2 A,2 | !fermata!A,4 A,2 A,2 | %16
w: em ne- que|_ de- co-|* rem|as- pec- tus|e- jus in|e- onon _|est: Hic pec-|
 A,2 A,2 D4 | ^C2 D2 E4 | F4 z2 F2- | F2 E2 D2 ^C2 | D4 ^C4 | z2 D4 E2 | F8 | B,8 | C6 B,2 | %25
w: ca- ta no-|stra por- ta-|vi, et|_ pro no- bis|do- let|i pse|au-|tem|vul- ne-|
 A,4 A,4 | =B,4 z4 | D4 D2 D2 | C2 A,2 C2 C2 | D8 | !fermata!G,8 || z8 | z8 | z8 | F,4 G,2 A,2 | %35
w: ra- tus|est|pro- pter in-|i- qui- ta- tes-|e-|stras.||||Cu- jus li-|
 B,4 A,4 | F2 F4 D2 | C8 | !fermata!C8 || A4 A2 c2 | B2 A2 G4 | A2 B4 A2 | G4 A4- | A4 A4 | F4 G4 | %45
w: vo- re|sa- na- ti|su-|mus.|Ve- re lan-|guo- res no-|stros i- pse|tu- lit|_ et|do- lo-|
 E4 F4 | E4 z2 C2 | D2 E2 F4- | F2 ED !fermata!E4 |] %49
w: res no-|stros i-|pse por- ta-|* * * vit|
V:3
 z8 | A8 | F4 z4 | z2 B2 A2 G2 | A4 G4 | F4 G2 A2 | D2 F4 E2 | F4 G4 | B2 A2 c4 | c4 F4 | %10
w: |Ec-|ce|vi- di- mus|e- um|non ha- ben-|tem spe- ci-|em ne-|que de- co-|rem, ne-|
 B2 F2 G4- | G4 A4 | z2 B2 B2 B2 | B4 B2 B2 | A4 G2 F2 | !fermata!E4 F2 F2 | F2 F2 A4 | A2 A2 c4 | %18
w: que de- co-|* rem|as- pec- tus|e- jus in|e- o non|est: Hic pec-|ca- ta no-|stra por- ta-|
 c4 z2 c2- | c2 c2 A2 A2 | A4 A4 | z2 A4 c2 | c4 d4 | z4 G4- | G4 G4 | ^F2 G4 F2 | G2 d3 d d2 | %27
w: vi, et|_ pro no- bis|do- let|i- pse|au- tem|vul-|* ne-|ra- * tus|est pro- pter in-|
 d2 G2 A2 B2 | ABcB AF c2- | c2 =BA B4 | !fermata!c8 || F4 G2 A2 | B4 A4 | G2 A2 =B2 c2- | %34
w: i- qui- ta- tes|no- * * * * * *||stras.|Cu- jus li-|vo- re|sa- na- ti su-|
 c=B/A/ B2 c4 | z4 z2 c2 | B8 | A4 G4 | !fermata!A8 || f4 f2 e2 | d2 c2 B4 | A2 d2 e2 f2- | %42
w: * * * * mus,|sa-|na-|ti su-|mus.|Ve- re lan-|guo- res no-|stros pse tu- *|
 fe/d/ e2 f4 | z4 f4 | d4 _e4 | c4 d4 | c2 c2 B2 A2 | G4 A4 | !fermata!c8 |] %49
w: * * * * lit|et|do- lo-|res no-|stros i- pse por-|ta- *|vit.|
V:4
 z8 | z4 F,4- | F,4 D,4 | G,4 F,2 E,2 | F,4 C,4 | D,4 C,4 | B,,2 A,,2 B,,2 C,2 | D,4 C,4 | %8
w: |Ec-|* ce|vi- di- mus|e- um|non ha-|ben- tem spe- ci-|em ne-|
 B,,2 D,2 C,4 | F,4 D,2 B,,2- | B,,2 D,2 C,4- | C,4 F,,4 | z2 B,,2 B,,2 B,,2 | _E,4 B,,2 B,,2 | %14
w: que de- co-|rem, ne- que|_ de- co-|* rem|as- pe- ctus|e- jus in|
 F,4 C,2 D,2 | !fermata!A,,4 D,2 D,2 | D,2 D,2 D,4 | A,,2 D,2 C,4 | F,4 z2 F,2- | %19
w: e- o non|est: Hic pec-|ca- ta no-|stra por- ta-|vi, et|
 F,2 C,2 D,2 A,,2 | D,4 A,,4 | z2 D,4 C,2 | F,4 B,,4 | _E,6 D,2 | C,8 | D,8 | G,,4 z2 G,2- | %27
w: _ pro no- bis|do- let|i- ose|au- tem|vul- ne-|ra-|tus|est pro-|
 G,G, G,2 F,2 D,2 | F,6 E,2 | D,8 | !fermata!C,8 || z4 C,4 | D,2 E,2 F,4 | E,2 F,2 G,2 E,2 | %34
w: * pter in- i- qui|ta- tes|no-|stras.|Cu-|jus li- vo-|re sa- na- ti|
 D,4 C,4 | G,4 F,4 | B,,4 D,3 E, | F,4 C,4 | !fermata!F,,8 || z8 | z8 | z8 | z8 | z8 | z8 | z8 | %46
w: su- mus,|sa- na-|ti su- *||mus.||||||||
 z8 | z8 | z8 |] %49
w: |||

